X:1
T:Chi brama di veder
T:Tiburtio Massaino
T:Chi brama di veder 
C:Tiburtio Massaino
%%score [ 1 2 3 4 ]
L:1/8
Q:1/4=120
M:4/2
K:F
V:1 alto1 nm="Canto" snm="C"
V:2 alto nm="Alto" snm="A"
V:3 tenor nm="Tenore" snm="T"
V:4 bass nm="Basso" snm="B"
V:1
 z16 |[K:G][K:treble] A8 c6 B2 | A4 G4 A8- | A8 z8 | A8 A6 G2 | A2 B2 c4 z4 A4 | c4 B4 z4 z2 d2- | %7
w: |Chi bra- ma|di ve- der,|_|Chi bra- ma|di ve- der, Chi|bra- ma di|
 d2 c2 B4 B4 e3 d | c4 B4 G6 A2 | B8 z8 | z4 z2 e4 A2 B4 | c4 d2 e2 =f4 e4- | e4 d4 c8- | %13
w: _ ve- der bel- ta di-|vi- na, E u-|dir,|E u- dir|dol- ce pa- ro- le|_ V'a- scol-|
 c8 B4 d4 | e16 | d4 B4 c4 B2 e2 | e4 e2 B2 c8 | B4 A4 B4 B4 | c4 A2 B3 A A4 ^G2 | A16 || %20
w: * ti, V'a-|scol-|ti e mi- ri, e|mi- ri, e mi-|ri, Il- lu- stre|Pel- le- gri- * * *|na.|
 B4 c6 e2 d2 c2 | B4 A4 z4 z2 e2- | e2 d2 c4 z4 z2 d2 | c2 B4 A4 G2 F4 | E4 z4 z8 | z8 z4 F4 | %26
w: Ma chi mo- rir non|vuo- le E|_ de- sia, E|de- sia vi- ver sciol-|to|Chiu-|
 G4 A4 B4 c4 | d6 c2 B8- | B4 A4 B8 | B8 z4 A4 | G6 A2 B2 d2 c4 | B4 z2 e2 =f4 e4 | %32
w: da l'o- rec- chie e|non vi mi-|* ri in vol-|to, Che|tra di- let- to e spe-|ne Vin- ce- te,|
 z4 z2 e2 =f4 e4 | d6 B2 c4 c4 | B4 A4 B8 | A4 z4 z8 | z8 z4 z2 B2- | B2 c2 B2 A4 G2 c4 | %38
w: Vin- ce- te i|ba- si- li- schi e|le si- re-|ne,|E|_ pro- met- ten- do a- i-|
 B4 z4 z8 | z4 c6 B2 B4 | c4 e4 d8 | c4 e6 d2 d4 | e4 c8 d4 | c2 c2 B2 A4 ^GF G4 | A16 |] %45
w: ta,|Na- scon- de-|te la mor-|te, Na- scon- de-|te la mor-|te ne la vi- * * *|ta.|
V:2
 z16 |[K:G][K:treble] z16 | z8 E8 | E6 D2 E2 F2 G4 | E4 D8 C4 | =F4 E4 z4 D4 | E2 F2 G4 E4 z2 F2 | %7
w: ||Chi|bra- ma di ve- der|bel- ta di-|vi- na, bel-|ta di- vi- na, Chi|
 G6 G2 G4 B4 | A4 D4 E6 F2 | G4 F4 z2 E4 A,2 | B,4 C6 C2 D2 E2- | EDCB,A,B, C4 B,2 C4 | z4 G4 G8- | %13
w: bra- ma di ve-|der bel- ta di-|vi- na, E u-|dir dol- ce pa- ro-|* * * * * * * * le|V'a- scol-|
 G8 G4 G4 | G16 | G8 z4 G4 | A4 G2 G2 E6 F2 | G4 E4 z2 G2 G4 | E4 =F2 F2 E8 | E16 || %20
w: * ti, V'a-|scol-|ti e|mi- ri, V'a- scol- ti e|mi- ri, Il- lu-|stre Pel- le- gri-|na.|
 z4 A4 E3 F G2 A2 | ^G4 A4 z8 | z2 B4 A2 G2 E4 F2 | G4 D4 z2 E4 D2- | D2 C2 B,8 A,4 | E6 F2 G4 D4 | %26
w: Ma chi mo- rir non|vuo- le|E de- sia vi- ver|sciol- to Chiu- da|_ l'o- rec- chie e|non _ _ vi|
 E4 F4 G8 | F4 F4 D4 G4 | F4 E4 F8 | ^G8 z4 E4 | E6 E2 F2 G2 A4- | A2 GF G4 D4 z2 G2 | %32
w: mi- ri in vol-|to, e non vi|mi- ri in vol-|to, Che|tra di- let- to e spe-|* * * * ne Vin-|
 A4 G4 z4 E4 | F4 G4 E6 F2 | G2 E2 A6 ^GF G4 | A4 z2 E4 =F2 E2 D2- | D2 C2 =F4 E4 z2 ^F2 | %37
w: ce- te i|ba- si- li- schi e|le si- re- * * *|ne, E pro- met- ten-|* do a- i- ta, E|
 G4 F2 E3 F G4 F2 | G4 E6 D2 D4 | E6 F2 G8 | G8 z4 G4- | G2 G2 F4 G8 | E4 =F8 F4 | E4 E4 E8 | %44
w: pro- met- ten- do a- i- *|ta, Na- scon- de-|te la mor-|te, Na-|* scon- de- te|la mor- te|ne la vi-|
 E16 |] %45
w: ta.|
V:3
 z16 |[K:G][K:treble-8] z4 A4 A6 G2 | A2 B2 c8 c4 | A6 B2 c4 B4 | z16 | z16 | z4 e4 g6 f2 | %7
w: |Chi bra- ma|di ve- der bel-|ta di- vi- na,|||Chi bra- ma|
 e4 d4 e8 | e4 g6 f2 e4- | e4 ^d4 e2 B2 c2 =d2 | e4 e2 e4 f2 g2 G2- | G2 A4 G2 d4 G4- | G4 B4 e8- | %13
w: di ve- der|bel- ta di- vi-|* * na, bel- ta di-|vi- na, E u- dir dol-|* ce pa- ro- le|_ V'a- scol-|
 e8 d4 B4 | c16 | B8 z4 B4 | c4 B2 G2 A8 | G4 z2 c2 d4 d2 e2- | e2 A4 d3 cBA B4 | A16 || z16 | %21
w: * ti, V'a-|scol-|ti e|mi- ri, e mi-|ri, Il- lu- stre Pel-|* le- gri- * * * *|na.||
 B4 c6 e2 d2 c2 | B4 e2 c4 B2 A4 | z2 G4 A2 B4 B4 | z4 d8 c4 | B4 A4 G4 B4- | B4 A4 G8 | %27
w: Ma chi mo- rir non|vuo- le E de- sia|vi- ver sciol- to|Chiu- da|l'o- rec- chie e non|_ vi mi-|
 A4 A4 B6 c2 | d2 B2 e6 ^d2 d4 | e8 z4 A4 | c6 c2 B4 A4 | e4 e4 z4 e4 | =f4 e4 d4 c4 | %33
w: ri, e non vi|mi- ri in vol- * *|to, Che|tra di- let- to e|spe- ne Vin-|ce- te i ba- si-|
 B4 G4 A2 B2 c2 d2 | e4 =f4 e8 | A4 B4 c4 B2 A2- | AB c4 B2 c4 B4 | e4 d2 c4 B2 A4 | G4 z4 z8 | %39
w: li- schi e le _ _ _|_ si- re-|ne, E pro- met- ten-|* do a- i- * ta, E|pro- met- ten- do a- i-|ta,|
 z4 e6 d2 d4 | e6 f2 g8 | e4 c6 B2 B4 | c4 A4 A6 A2 | G3 A B2 c2 B8 | A16 |] %45
w: Na- scon- de-|te la mor-|te, Na- scon- de-|te la mor- te|ne _ _ la vi-|ta.|
V:4
 z16 |[K:G] z16 | z8 A,8 | C6 B,2 A,4 G,4 | A,4 D,4 =F,6 E,2 | D,4 C,4 D,8 | z4 E,4 E,6 D,2 | %7
w: ||Chi|bra- ma di ve-|der, Chi bra- ma|di ve- der,|Chi bra- ma|
 E,2 F,2 G,8 E,4 | A,,4 B,,4 C,8 | B,,8 z2 E,4 F,2 | G,4 A,8 G,2 E,2- | E,2 =F,4 E,2 D,4 C,4- | %12
w: di ve- der bel-|ta di- vi-|na, E u-|dir dol- ce, dol-|* ce pa- ro- le|
 C,4 G,4 C,8- | C,8 G,4 G,4 | C,16 | G,4 z2 G,2 A,4 G,2 E,2 | A,,B,,C,D, E,4 A,,4 z4 | %17
w: _ V'a- scol-|* ti, V'a-|scol-|ti e mi- ri, e|mi- * * * * ri,|
 z4 A,4 G,6 G,2 | A,4 D,4 E,8 | A,,16 || z16 | z4 A,4 E,3 F, G,2 A,2 | ^G,4 A,4 z2 =G,4 F,2 | %23
w: Il- lu- stre|Pel- le- gri-|na.||Ma chi mo- rir non|vuo- le E de-|
 E,4 z2 D,4 E,2 B,,4 | E,4 D,4 E,4 F,4 | G,4 A,4 B,6 A,2 | G,4 F,4 E,8 | D,4 D,4 G,4 E,4 | %28
w: sia vi- ver sciol-|to Chiu- da l'o-|rec- chie e non vi|mi- ri in vol-|to, e non vi|
 B,4 C4 B,8 | E,8 z8 | z16 | z16 | z16 | z16 | z16 | z4 E,4 A,4 G,2 =F,2- | F,2 E,2 D,4 C,4 z4 | %37
w: mi- ri in vol-|to,||||||E pro- met- ten-|* do a- i- ta,|
 z16 | z4 C6 B,2 B,4 | C4 A,4 G,8 | C,4 C6 B,2 B,4 | C4 A,4 G,8 | C,4 =F,8 D,4 | E,16 | A,,16 |] %45
w: |Na- scon- de-|te la mor-|te, Na- scon- de-|te la mor-|te ne la|vi-|ta.|

